!!!COM: Bach, Johann Sebastian
!!!CDT: 1685/02/21/-1750/07/28/
!!!OTL@@DE:	O gro&szlig;er Gott von Macht
!!!SCT: BWV 46/6
!!!PC#:	82
!!!AGN: chorale
**harm	**kern	**kern	**kern	**kern
*	*ICvox	*ICvox	*ICvox	*ICvox
*	*Ibass	*Itenor	*Ialto	*Isoprn
*	*I"Bass	*I"Tenor	*I"Alto	*I"Soprano
*	*	*oclefC4	*oclefC3	*oclefC1
*	*clefF4	*clefGv2	*clefG2	*clefG2
*k[b*]	*k[b-]	*k[b-]	*k[b-]	*k[b-]
*g:dor	*g:dor	*g:dor	*g:dor	*g:dor
*M4/4	*M4/4	*M4/4	*M4/4	*M4/4
*met(c)	*met(c)	*met(c)	*met(c)	*met(c)
*MM100	*MM100	*MM100	*MM100	*MM100
V	4D	4d	4f#	4a
=1	=1	=1	=1	=1
i	4G	4d	4g	4b-
V6/III	4A	4c	4fnX	4cc
III	4B-	4B-	4f	4dd
v	8dL	8fL	8fL	8aL
viio6/iv	8dJ	8fJ	8fJ	8bJ
=2	=2	=2	=2	=2
iv;	2c;	2e-;	2g;	2cc;
.	4r	4ry	4ry	4r
iv	4c	4c	4e-	4g
=3	=3	=3	=3	=3
IV2	4B-	4c	4enX	4g
viio6	4A	4c	4f#	4a
i	4G	4d	4g	4b-
iio6	4C	4e-	4a	4cc
=4	=4	=4	=4	=4
V;	2D;	2d;	2f#;	2a;
.	4r	4ry	4ry	4r
v	4D	4A	4d	4f
=5	=5	=5	=5	=5
B-:I	4BB-	4B-	4d	4f
viio6/V	4G	4B-	4e	4g
V	4F	4c	4f	4a
IV6	4G	4B-	4e-	4b-
=6	=6	=6	=6	=6
V65;	2A;	2f;	2e-;	2cc;
.	4r	4ry	4ry	4r
I	4B-	4f	4d	4dd
=7	=7	=7	=7	=7
IV	4E-	4e-	4g	4b-
I6	4D	4f	4b-	4dd
V	4F	4f	4a	4cc
V	4FF	4c	4a	4cc
=8	=8	=8	=8	=8
I;	2BB-;	2d;	2f;	2b-;
.	4r	4ry	4ry	4r
I	4B-	4B-	4f	4dd
=9	=9	=9	=9	=9
vi	4G	4B-	4g	4dd
g:i2	4F	4B-	4g	4dd
IV65	4EnX	4B-	4g	4cc
V65	4F#	4A	4d	4cc
=10	=10	=10	=10	=10
i	4G	4G	4d	4b-
vio6	4GG	4G	4e	4b-
V;	2D;	2A;	2f#;	2a;
=11	=11	=11	=11	=11
.	4r	4ry	4ry	4r
V	4D	4d	4f#	4a
i	4GG	4d	4g	4b-
C:IV6	4AA	4c	4f	4a
=12	=12	=12	=12	=12
V65	4BB	4d	4f	4g
I	4C	4G	4e	4g
ii2	4c	4A	4d	4f
V65	4BB	4G	4d	4f
=13	=13	=13	=13	=13
I;	2C;	2G;	2c;	2e;
.	4r	4ry	4ry	4r
g:i6	4BB-X	4G	4d	4g
=14	=14	=14	=14	=14
iv6	4E-	4G	4c	4g
v	4D	4d	4f	4a
IV6	8EL	8cL	8gL	8ccL
viio	8F#J	8AJ	8aJ	8ccJ
i	4G	4B-	4d	4b-
=15	=15	=15	=15	=15
ii%65	4C	4e-	4g	4a
V	4D	4A	4f#	4a
i;	2GG;	2B-;	2d;	2g;
=16	=16	=16	=16	=16
.	4r	4ry	4ry	4r
c:V2	4F	4B	4d	4g
i6	4E-	4c	4e-	4g
ii	8DL	8fL	8fL	8aL
viio6	8DJ	8fJ	8fJ	8bJ
=17	=17	=17	=17	=17
i	4C	4e-	4g	4cc
v	4GG	4d	4g	4b-X
d:V7	2AA	2c#	2g	2a
=18	=18	=18	=18	=18
I;	1D;	1d;	1f#;	1a;
==	==	==	==	==
*-	*-	*-	*-	*-
!!!YOR1: 371 vierstimmige Choralges&auml;nge von Johann Sebastian Bach, 
!!!YOR2: 4th ed. by Alfred D&ouml;rffel (Leipzig: Breitkopf und H&auml;rtel, 
!!!YOR2: c.1875). 178 pp. Plate "V.A.10".  reprint: J.S. Bach, 371 Four-Part 
!!!YOR4: Chorales (New York: Associated Music Publishers, Inc., c.1940).
!!!SMS: B&H, 4th ed, Alfred D&ouml;rffel, c.1875, plate V.A.10
!!!EED:  Craig Stuart Sapp
!!!EEV:  2009/05/22
